X: 21
T:Shandon Bells
R:jig
S:Fiddle Players Tunebook 2
Z:Prince Edward Island
M:6/8
L:1/8
K:Dmaj
AFD DFA |ded cBA |BGE EFG |B2A Bcd |\
AFD DFA |ded cBA |Bcd ecA |1 d3d2B:|2d3d2g||:\
f2d dAd |faa afd |cAA  eAA |cAA efg |\
f2d dAd |faa afd |Bcd ecA |d3d3:|
